movie-open-minus-outline.svg

<svg fill="currentColor" viewBox="0 0 24 24"><path d="M13.09 20c.12.72.37 1.39.72 2H4a2 2 0 0 1-2-2V10h20v3.81c-.61-.35-1.28-.59-2-.72V12H4v8zm8.53-13.9-.78-3.92-3.93.78 2.74 3.54zm-4.91.97-2.74-3.53-1.97.39 2.75 3.53zM4.16 5.5l-.98.19a1.995 1.995 0 0 0-1.57 2.35L2 10l4.9-.97zm7.65 2.55L9.07 4.5l-1.97.41 2.75 3.53zM15 18v2h8v-2z"/></svg>

<svg  viewBox="0 0 24 24" fill="currentColor"><path  d="M13.09 20C13.21 20.72 13.46 21.39 13.81 22H4C2.9 22 2 21.11 2 20V10H22V13.81C21.39 13.46 20.72 13.22 20 13.09V12H4V20H13.09M21.62 6.1L20.84 2.18L16.91 2.96L19.65 6.5L21.62 6.1M16.71 7.07L13.97 3.54L12 3.93L14.75 7.46L16.71 7.07M4.16 5.5L3.18 5.69C2.1 5.9 1.39 6.96 1.61 8.04L2 10L6.9 9.03L4.16 5.5M11.81 8.05L9.07 4.5L7.1 4.91L9.85 8.44L11.81 8.05M15 18V20H23V18H15Z"/></svg>
